X:1
T: In the Garden
C: C. Austin Miles
M:3/4
K:C
L: 1/4
G |: "C" G E F | G c d | (e3 | "C7" e) d c |
w: I come to the gar-den a-lone, - while the
"F" c2 c | "Dm" d c A | "C" c3 | G2 B/c/ | "G" d2 d | B2 A/B/ |
w: dew is still on the ros-es, and the voice I hear fall-ing
"C" c2 d | e2 e | "D7" d2 e | d2 c | "G" (B2 c) | (d3 | "G7" d2) e/d/ |
w: on my ear, the Son of God dis-clos--es, - and He
"C" c2 c | c B A | "G" B2 B | B2 G/G/ | "G7" f2 f |
w: walks with me and he talks with me, and He tells me
f e ^d | "C" (e3 | e) c d | e2 e | "E7" d d B | "Am" c2 c |
w: I am His own, - and the joy we share as we tar-ry
"D7" c2 A | "C" G c c | "G" B d2 | "C" c3 :|
w: there, none oth-er has ev-er known.
W: He speaks,  and the sound of His voice
W: Is so sweet the birds stop their singing,
W: And the melody that He gave to me
W: Within my heart is ringing.
W:
W: I'd stay in the garden with Him,
W: Though the night around me be falling.
W: But He bids me go through the voice of woe;
W: His voice to me is calling.
W:
W: This lovely old anthem is sung
W: At funerals,  and yet it is thrilling.
W: 'Twill be sung at mine,  when it comes my time;
W: But not quite yet,  God willing.

